icons/desktop/16/svg/sparkles-16.svg

<svg width="16" height="16" viewBox="0 0 16 16" fill="none" xmlns="http://www.w3.org/2000/svg">
<path d="M2.62206 11.2518C2.76306 10.9148 3.23692 10.9148 3.37792 11.2518C3.40389 11.3157 3.43107 11.3821 3.45604 11.449C3.5379 11.6657 3.60141 11.8715 3.65136 12.0633C3.68936 12.2063 3.80523 12.3124 3.94823 12.3494C4.11408 12.3924 4.28984 12.4466 4.47265 12.5125C4.56665 12.5475 4.65808 12.5829 4.74608 12.6199C5.08668 12.7631 5.08877 13.2357 4.74804 13.3787C4.6691 13.4117 4.5859 13.4444 4.50097 13.4754C4.30715 13.5463 4.12111 13.6033 3.94725 13.6492C3.80527 13.6862 3.68935 13.7914 3.65233 13.9334C3.59933 14.1374 3.52944 14.3586 3.43944 14.5926C3.41846 14.6456 3.39793 14.6979 3.37694 14.7488C3.2359 15.0836 2.76317 15.0835 2.62304 14.7488C2.60104 14.6978 2.57956 14.6456 2.55956 14.5926C2.46958 14.3586 2.39966 14.1374 2.34667 13.9334C2.30961 13.7915 2.19466 13.6862 2.05272 13.6492C1.87881 13.6033 1.69291 13.5464 1.49901 13.4754C1.41407 13.4444 1.33189 13.4117 1.25194 13.3787C0.910959 13.2357 0.912947 12.763 1.2539 12.6199C1.34078 12.583 1.43149 12.5465 1.52636 12.5125C1.71035 12.4465 1.88575 12.3924 2.05175 12.3494C2.19475 12.3124 2.31065 12.2063 2.34765 12.0633C2.39761 11.8715 2.46203 11.6658 2.54393 11.449C2.56893 11.3811 2.59507 11.3158 2.62206 11.2518Z" fill="black"/>
<path fill-rule="evenodd" clip-rule="evenodd" d="M8.31444 3.1297C8.94147 1.6321 11.0526 1.63212 11.6797 3.1297C11.7536 3.30603 11.8241 3.48637 11.8935 3.66974L11.8945 3.67072C12.1194 4.26581 12.2953 4.83212 12.4326 5.35822C12.4552 5.44347 12.5314 5.53449 12.6709 5.57111L13.0166 5.66486C13.3673 5.76443 13.733 5.88098 14.1103 6.0174C14.372 6.11129 14.6236 6.21034 14.8633 6.31037C16.3616 6.93722 16.3865 9.04561 14.8721 9.68146C14.6524 9.7744 14.425 9.86412 14.1904 9.95002C13.6574 10.1458 13.1476 10.3031 12.6699 10.4285C12.5334 10.4642 12.457 10.5532 12.4346 10.6375C12.2881 11.196 12.0986 11.8036 11.8506 12.4451L11.8496 12.4461C11.7948 12.5873 11.7372 12.7295 11.6777 12.8709L11.6787 12.8719C11.0681 14.3323 9.03341 14.3631 8.36229 12.9647C8.34517 12.9357 8.3297 12.9054 8.3164 12.8738C8.25653 12.7317 8.19967 12.5881 8.14452 12.4461C7.89628 11.805 7.70689 11.1958 7.56054 10.6375L7.55956 10.6365C7.53823 10.5554 7.46468 10.4645 7.32518 10.4276C6.84549 10.3026 6.33487 10.1465 5.80272 9.95099C5.56771 9.86457 5.3412 9.77439 5.12499 9.68439L5.12401 9.68341C3.60752 9.04869 3.63113 6.93767 5.12987 6.31037C5.37126 6.20962 5.62253 6.11212 5.88085 6.01837C6.38462 5.83615 6.86867 5.68948 7.32323 5.57111L7.32518 5.57013C7.4627 5.5344 7.53876 5.44459 7.56151 5.35822L7.56249 5.35724C7.70033 4.83302 7.87449 4.26652 8.0996 3.67072L8.10057 3.66974C8.16997 3.48643 8.24056 3.30597 8.31444 3.1297ZM10.2959 3.7088C10.1827 3.43912 9.81138 3.4391 9.69823 3.7088L9.50292 4.20099C9.29848 4.7421 9.13869 5.2572 9.01268 5.73615L9.01366 5.73712C8.84027 6.40039 8.31203 6.86299 7.70018 7.0213L7.70116 7.02228C7.28845 7.12976 6.8499 7.26313 6.39257 7.42853C6.15513 7.5147 5.9264 7.60397 5.708 7.69513L5.70702 7.69416C5.42013 7.81575 5.43279 8.18638 5.70311 8.29962C5.90463 8.3835 6.10962 8.46531 6.3203 8.54279L6.68065 8.66974C7.03585 8.7903 7.37791 8.89168 7.70311 8.97638L7.70507 8.97736C8.31071 9.13648 8.83895 9.59606 9.01171 10.2586C9.14525 10.7678 9.31751 11.3209 9.54296 11.9031L9.68749 12.2625C9.69244 12.273 9.69862 12.283 9.70311 12.2938C9.81334 12.5572 10.1845 12.557 10.2949 12.2938V12.2918C10.347 12.1681 10.3984 12.039 10.4512 11.9031C10.6769 11.3192 10.8499 10.7658 10.9834 10.2567C11.1571 9.59604 11.6829 9.13597 12.2891 8.97736L12.6211 8.88654C12.9583 8.78994 13.3113 8.67634 13.6748 8.54279C13.8877 8.46484 14.0922 8.38348 14.2881 8.3006L14.291 8.29962C14.5618 8.18632 14.5742 7.81529 14.2861 7.69416C14.066 7.60229 13.8386 7.51352 13.6045 7.42951L13.6025 7.42853C13.1449 7.26298 12.7059 7.12982 12.293 7.02228C11.6833 6.86287 11.1551 6.40029 10.9814 5.7381L10.9805 5.73712C10.8869 5.37871 10.7741 4.99883 10.6367 4.60236L10.4912 4.20099C10.4267 4.03069 10.3619 3.86619 10.2959 3.7088Z" fill="black"/>
<path d="M2.62206 1.25177C2.76306 0.914773 3.23692 0.914773 3.37792 1.25177C3.40389 1.31571 3.43107 1.38211 3.45604 1.44904C3.5379 1.66572 3.60141 1.87155 3.65136 2.0633C3.68936 2.2063 3.80523 2.31243 3.94823 2.34943C4.11408 2.3924 4.28984 2.44659 4.47265 2.51252C4.56665 2.54752 4.65808 2.58294 4.74608 2.61994C5.08668 2.7631 5.08877 3.2357 4.74804 3.37873C4.6691 3.4117 4.5859 3.44443 4.50097 3.47541C4.30715 3.54634 4.12111 3.60326 3.94725 3.64923C3.80527 3.68623 3.68935 3.79144 3.65233 3.93341C3.59933 4.13741 3.52944 4.35859 3.43944 4.59259C3.41846 4.64555 3.39793 4.69788 3.37694 4.74884C3.2359 5.08358 2.76317 5.0835 2.62304 4.74884C2.60104 4.69784 2.57956 4.64559 2.55956 4.59259C2.46958 4.35862 2.39966 4.13739 2.34667 3.93341C2.30961 3.79152 2.19466 3.68622 2.05272 3.64923C1.87881 3.60325 1.69291 3.54636 1.49901 3.47541C1.41407 3.44443 1.33189 3.4117 1.25194 3.37873C0.910959 3.23573 0.912947 2.76296 1.2539 2.61994C1.34078 2.58299 1.43149 2.54648 1.52636 2.51252C1.71035 2.44652 1.88575 2.39243 2.05175 2.34943C2.19475 2.31243 2.31065 2.2063 2.34765 2.0633C2.39761 1.87147 2.46203 1.66582 2.54393 1.44904C2.56893 1.38106 2.59507 1.31575 2.62206 1.25177Z" fill="black"/>
</svg>

<!-- This Source Code Form is subject to the terms of the Mozilla Public
   - License, v. 2.0. If a copy of the MPL was not distributed with this
   - file, You can obtain one at http://mozilla.org/MPL/2.0/. -->
<svg xmlns="http://www.w3.org/2000/svg" width="16" height="16" fill="context-fill" fill-opacity="context-fill-opacity" viewBox="0 0 16 16">
    <path d="M2.622 11.252a.409.409 0 0 1 .756 0q.04.096.078.197.122.326.195.614c.038.143.154.25.297.286a6 6 0 0 1 .798.27.41.41 0 0 1 .002.76 6 6 0 0 1-.8.27.4.4 0 0 0-.296.284 6 6 0 0 1-.213.66l-.062.156a.409.409 0 0 1-.754 0l-.063-.156a6 6 0 0 1-.213-.66.4.4 0 0 0-.294-.284 6 6 0 0 1-.801-.27.41.41 0 0 1 .002-.76 6.062 6.062 0 0 1 .798-.27.4.4 0 0 0 .296-.286 6 6 0 0 1 .274-.811" />
    <path fill-rule="evenodd" d="M8.314 3.13c.627-1.498 2.739-1.498 3.366 0q.11.264.213.54h.002c.224.596.4 1.162.538 1.688.022.085.098.176.238.213l.346.094a16 16 0 0 1 1.846.645c1.499.627 1.524 2.736.01 3.371q-.33.14-.683.269a17 17 0 0 1-1.52.479c-.137.035-.213.124-.235.208a17 17 0 0 1-.584 1.808l-.001.001a16 16 0 0 1-.172.425c-.61 1.461-2.645 1.492-3.316.094a1 1 0 0 1-.046-.091 16.817 16.817 0 0 1-.756-2.236v-.002c-.022-.08-.095-.171-.235-.208a16.4 16.4 0 0 1-2.2-.744h-.001c-1.516-.635-1.493-2.746.006-3.374q.363-.15.75-.292a16 16 0 0 1 1.443-.447h.002c.138-.037.214-.126.237-.213.138-.525.312-1.091.538-1.687V3.67q.104-.276.214-.54m1.982.579a.322.322 0 0 0-.598 0l-.195.492a16 16 0 0 0-.49 1.535v.001A1.81 1.81 0 0 1 7.7 7.021l.001.001a15 15 0 0 0-1.993.673h-.001a.324.324 0 0 0-.004.605q.303.125.617.243l.36.127q.535.18 1.023.306l.002.001c.606.16 1.134.62 1.307 1.282.133.509.306 1.062.531 1.644l.144.36q.009.015.016.03a.32.32 0 0 0 .592 0v-.001q.077-.186.156-.389c.226-.584.399-1.137.532-1.646.174-.661.7-1.121 1.306-1.28l.332-.09a15 15 0 0 0 1.667-.586l.003-.001a.323.323 0 0 0-.005-.606q-.33-.138-.681-.264l-.003-.001a15 15 0 0 0-1.309-.407 1.82 1.82 0 0 1-1.312-1.284 15 15 0 0 0-.344-1.136l-.146-.401a15 15 0 0 0-.195-.492" clip-rule="evenodd" />
    <path d="M2.622 1.252a.409.409 0 0 1 .756 0q.04.096.078.197.122.327.195.614c.038.143.154.25.297.286a6 6 0 0 1 .798.27.41.41 0 0 1 .002.76 6 6 0 0 1-.8.27.4.4 0 0 0-.296.284 6 6 0 0 1-.213.66l-.062.156a.409.409 0 0 1-.754 0l-.063-.156a6 6 0 0 1-.213-.66.4.4 0 0 0-.294-.284 6 6 0 0 1-.801-.27.41.41 0 0 1 .002-.76q.13-.055.272-.106.276-.099.526-.164a.4.4 0 0 0 .296-.286 6 6 0 0 1 .274-.811" />
</svg>
